svgs/sharp-regular/file-arrow-down.svg

<svg xmlns="http://www.w3.org/2000/svg" viewBox="0 0 384 512"><!--! Font Awesome Pro 6.6.0 by @fontawesome - https://fontawesome.com License - https://fontawesome.com/license (Commercial License) Copyright 2024 Fonticons, Inc. --><path d="M48 48l176 0 0 112 112 0 0 304L48 464 48 48zM256 0L48 0 0 0 0 48 0 464l0 48 48 0 288 0 48 0 0-48 0-336L256 0zM216 232l0-24-48 0 0 24 0 102.1-31-31-17-17L86.1 320l17 17 72 72 17 17 17-17 72-72 17-17L264 286.1l-17 17-31 31L216 232z"/></svg>

<svg xmlns="http://www.w3.org/2000/svg" viewBox="0 0 384 512"><!--! Font Awesome Pro 6.4.0 by @fontawesome - https://fontawesome.com License - https://fontawesome.com/license (Commercial License) Copyright 2023 Fonticons, Inc. --><path d="M48 48H224V160H336V464H48V48zM256 0H48 0V48 464v48H48 336h48V464 128L256 0zM216 232V208H168v24V334.1l-31-31-17-17L86.1 320l17 17 72 72 17 17 17-17 72-72 17-17L264 286.1l-17 17-31 31V232z"/></svg>
